X:1
T:Title
%%score 1 { 2 | 3 }
L:1/8
Q:1/4=110
M:4/4
K:Bb
V:1 treble nm="Grand Piano, Staff 1"
V:2 bass nm="Choir Pad, Hereford (Ouseley), CM"
V:3 bass 
V:1
 [DG]2 [DG]2 [D^F]2 [DG]2 | [FA]2 [GB]2 [Ac]2 [Bd]2 | [Fd]2 [Fc]2 [FB]2 [FA]2 | [DG]2 [D^F]6 | %4
w: By~Frederick~Arthur~Gore~Ouseley,~1861 * * *||||
 [^FA]2 [GB]2 [Gd]2 [Cc]2 | [CA]2 [DB]2 [CG]2 [FA]2 | [FB]2 [Gd]2 G2 [GA]2 | [^FB]2 G6- | %8
w: ||||
 G2 z2 z4 |] %9
w: |
V:2
 B,2 B,2 A,2 B,2 | C2[K:treble] E2 E2 D2 | B,2 E2 D2 C2 | B,2 A,6 | D2 D2 =E2 F2 | %5
 C2[K:bass] G,2 G,2 C2 | D2 B,2[K:treble] C2 E2 | DC B,6- | B,2 z2 z4 |] %9
V:3
 G,2 G,2 D,2 G,2 | F,2 E,D, C,2 B,,2 | B,,2 C,2 D,2 F,2 | G,2 D,6 | D,2 G,2 B,2 A,2 | %5
 F,2 F,2 =E,2 F,2 | B,,2 G,,2 E,2 C,2 | D,2 G,6- | G,2 z2 z4 |] %9

